X:291
T:Pigeon on the Gate
Z: id:dc-reel-271
M:C
L:1/8
K:E Dorian
A|BEE2 BEdE|BEE2 BAFE|D2FD ADFD|FABc d2cd|!
BEE2 BEdE|BEE2 BAFE|D2FA dcdA|BAFA BEE:|!
A|Beed efed|Bdef gfed|Addc dedB|ABde fded|!
Beed efed|Bdef g2fg|afge faec|dBAF BEE:|!

